X: 12
T: Belfast, The
Z: Shawn Cassady
S: https://thesession.org/tunes/4#setting47669
R: hornpipe
M: 4/4
L: 1/8
K: Dmaj
|:ag|(3faf df AdFA|DFAd f2 ef|gfeg ceAF|GABG E2 ag|
(3faf df AdFA|DFAd f2 ef|gfed cABc|d2c2 d2:|
|:(3DEF|GFGA Bcde|fgfe dc (3dcB|A2 fg fefA|G2 ef ed eA|
GFGA Bcde|fgfe dc (3dcB|Afed cABc|d2 c2 d2:|
|:ag|(3fgf (3efe (3ded (3cdc|(3BcB (3ABA G2 ba|
(3gag (3fgf (3efe (3ded|(3cdc (3BcB A2 ag|(3fgf (3efe (3ded (3cdc|
(3BcB (3ABA (3GAG (3FGF|Eeed cABc|d2 c2 d2:|

